X: 40189
T: Timmy Collins'
R: slip jig
M: 9/8
K: Gmajor
GBG AGE EDE|GBG AGE ~c2A|~B2G AGE EDE|GED DEG G2D|
GBG AGE EDE|GBG AGE cde|d2B AGE EDE|GED DEG G2D|
~G3 GA/B/c dBG|EAA ABd edg|~G3 GBc dBA|GBD DEG G2D|
~G3 GA/B/c dBG|EAA ABd ede|gfg gfe dBA|GBD DEG G2D|

